X: 2208
T: Autumn Apples
R: reel
M: 4/4
K: Gmajor
Bc|dG~G2 Bcde|cF~F2 ABcd|AGBc dG B/c/d|d2AB cABc|
dG~G2 ~B3d|cF~F2 ~A2B/c/d|g2ag gade|dcAF ~G3z|
dG~G2 Bcde|cF~F2 ABcd|AGBc dG B/c/d|fded BABc|
d2~G2 ~B3d|cF~F2 ~A2B/c/d|g2ag gade|dcAF ~G3z|
|:d/d/d^ce dg~g2|bgab ge~e2|df~f2 abag|f2af g/f/e ^ce|
dg~g2 ~g3a|b2ab ge^ce|dfag gade|dcAF ~G3z:|

